src/svg/openid.svg

<svg height="1000" width="875.0" xmlns="http://www.w3.org/2000/svg">
    <path d="m530.3 843.8l-132.8 62.5c-224.6-20.2-397.5-139.7-397.5-284.8 0-139.7 161.1-255.9 374.4-281.9v84c-139.6 24.4-242.2 103.5-242.2 197.9 0 99.6 114.3 182.2 265.1 201.2v-664.1l132.8-64.9v750h0.2z m344.7-275.4l-256.4-55.7 71.8-40.4c-38.1-22.5-84.9-39.1-136.7-48.5v-84c90.2 10.8 171.3 38.1 235 76.8l68.3-38.7z" />
  </svg>

<svg height="1000" width="875" xmlns="http://www.w3.org/2000/svg"><path d="M530.3 843.8l-132.8 62.5C172.9 886.1 0 766.6 0 621.5 0 481.8 161.1 365.6 374.4 339.6v84C234.8 448 132.2 527.1 132.2 621.5c0 99.6 114.3 182.2 265.1 201.2V158.6L530.1 93.8v750zM875 568.4L618.6 512.7l71.8 -40.4C652.3 449.8 605.5 433.2 553.7 423.8v-84c90.2 10.8 171.3 38.1 235 76.8L857 377.9l18 190.5z"/></svg>
